public/tarkov-dev-logo.svg

<svg viewBox="0 0 336.4805 54.0232" xmlns="http://www.w3.org/2000/svg"><g fill="#988a66"><path d="m76.7149 53.1715v-42.27h-6.2129v-10.0498h22.9014v10.05h-6.2124v42.27z"/><path d="m94.9258 53.1715 5.0552-52.3198h17.7241l4.9947 52.32h-9.9278l-.7309-8.4663h-6.3345l-.6094 8.4663zm11.5723-16.8106h4.751l-2.3145-26.6167h-.4873z"/><path d="m125.8663.8517h16.08a9.082 9.082 0 0 1 5.9384 1.7358 8.6287 8.6287 0 0 1 2.8322 4.8725 36.25 36.25 0 0 1 .73 8.01 16.8855 16.8855 0 0 1 -1.1572 6.9434 6.4983 6.4983 0 0 1 -4.0195 3.4717 4.8456 4.8456 0 0 1 3.4409 2.3755 10.4331 10.4331 0 0 1 1.0659 5.1162l-.1216 19.7949h-10.232v-20.4651q0-2.1928-.853-2.8017a5.67 5.67 0 0 0 -3.106-.6094v23.876h-10.5981zm13.1562 19.3683q2.1921 0 2.1924-4.7505a19.3782 19.3782 0 0 0 -.1826-3.1064 2.3088 2.3088 0 0 0 -.67-1.4312 2.1767 2.1767 0 0 0 -1.4009-.396h-2.4364v9.6841z"/><path d="m154.9185 53.1715v-52.3198h10.3545v20.9521l4.8726-20.9521h10.5371l-5.8472 23.937 7.065 28.3828h-10.8414l-5.7255-25.3374v25.3374z"/><path d="m186.5289 49.7911q-3.2889-3.8671-3.2889-10.872v-24.9112q0-6.7609 3.2891-10.2021t9.6233-3.4414q6.334 0 9.6231 3.4414t3.289 10.2021v24.9112q0 7.0664-3.289 10.9023t-9.6231 3.8374q-6.3354 0-9.6235-3.8677zm11.5111-6.9741a9.4881 9.4881 0 0 0 .4873-3.4106v-25.5811a7.1139 7.1139 0 0 0 -.4565-2.7715 1.8149 1.8149 0 0 0 -1.8579-1.0659q-2.6191 0-2.6187 3.959v25.5205a8.2655 8.2655 0 0 0 .5478 3.4106 2.0229 2.0229 0 0 0 2.01 1.1573 1.85 1.85 0 0 0 1.888-1.2183z"/><path d="m218.0782 53.1715-6.4561-52.3809h9.9893l3.8369 35.6314 3.4111-35.6314h9.9883l-6.456 52.3809z"/><path d="m241.1622 53.1715v-8.8926h10.6591v8.8926z"/><path d="m255.7794.8517h14.4355q5.6031 0 8.4053 3.1064t2.8623 9.1968l.1221 24.4853q.06 7.7352-2.6807 11.6333t-9.0752 3.898h-14.0693zm12.3642 43.062q2.8623 0 2.8623-2.8018v-26.9819a9.5716 9.5716 0 0 0 -.2734-2.6494 1.7645 1.7645 0 0 0 -1.0049-1.1875 6.2349 6.2349 0 0 0 -2.2539-.3047h-1.1572v33.9253z"/><path d="m285.8067 53.1715v-52.3198h20.9521v10.1108h-10.2929v10.1714h9.8672v9.8672h-9.8672v11.9989h10.9629v10.1715z"/><path d="m315.711 53.1715-6.4561-52.3809h9.9893l3.8369 35.6314 3.4111-35.6314h9.9883l-6.456 52.3809z"/><g stroke="#1d1d1b" stroke-miterlimit="10" stroke-width=".01"><path d="m24.2535 54.0116h-8.66c-1.0875-1.8775-8.1553-14.1034-10.39-18 2.24-3.8957 9.4148-16.32 10.39-18h8.66c-3.4163 5.9187-6.9759 12.0768-10.39 18z"/><path d="m51.1012 46.5131-4.33 7.5c-2.17.0031-16.2915.011-20.7834-.0019-2.2539-3.8876-9.4261-16.3135-10.3935-17.9981l4.33-7.5c3.4177 5.918 6.9709 12.08 10.3935 17.998z"/><path d="m58.0312 19.5131 4.33 7.5c-1.0822 1.8804-8.1363 14.1142-10.3935 17.9979-4.4936.0081-18.8408.0065-20.7834.0019l-4.33-7.5c6.834-.0008 13.9468.0029 20.7835-.002z"/><path d="m38.1135.0116h8.66c1.0875 1.8775 8.1553 14.1034 10.39 18-2.24 3.8957-9.4148 16.32-10.39 18h-8.66c3.4162-5.9188 6.9758-12.0768 10.39-18z"/><path d="m11.2658 7.51 4.33-7.5c2.17-.0031 16.2915-.011 20.7835.002 2.2539 3.888 9.426 16.3136 10.3934 17.998l-4.33 7.5c-3.4177-5.9179-6.9709-12.08-10.3935-17.998z"/><path d="m4.3358 34.51-4.33-7.5c1.0822-1.88 8.1362-14.1142 10.3934-17.9978 4.4937-.0082 18.8408-.0065 20.7835-.0022l4.33 7.5c-6.8339.0008-13.9467-.0028-20.7835.002z"/></g></g></svg>

<svg xmlns="http://www.w3.org/2000/svg" viewBox="0 0 336.4805 54.0232"><defs><style>.a,.b{fill:#988a66;}.b{stroke:#1d1d1b;stroke-miterlimit:10;stroke-width:0.01px;}</style></defs><path class="a" d="M76.7149,53.1715v-42.27H70.502V.8517H93.4034v10.05H87.191v42.27Z"/><path class="a" d="M94.9258,53.1715,99.981.8517h17.7241l4.9947,52.32H112.772l-.7309-8.4663h-6.3345l-.6094,8.4663Zm11.5723-16.8106h4.751L108.9346,9.7442h-.4873Z"/><path class="a" d="M125.8663.8517h16.08a9.082,9.082,0,0,1,5.9384,1.7358A8.6287,8.6287,0,0,1,150.7169,7.46a36.25,36.25,0,0,1,.73,8.01,16.8855,16.8855,0,0,1-1.1572,6.9434,6.4983,6.4983,0,0,1-4.0195,3.4717,4.8456,4.8456,0,0,1,3.4409,2.3755,10.4331,10.4331,0,0,1,1.0659,5.1162l-.1216,19.7949H140.4234V32.7066q0-2.1928-.853-2.8017a5.67,5.67,0,0,0-3.106-.6094v23.876H125.8663ZM139.0225,20.22q2.1921,0,2.1924-4.7505a19.3782,19.3782,0,0,0-.1826-3.1064,2.3088,2.3088,0,0,0-.67-1.4312,2.1767,2.1767,0,0,0-1.4009-.396H136.525V20.22Z"/><path class="a" d="M154.9185,53.1715V.8517H165.273V21.8038L170.1456.8517h10.5371l-5.8472,23.937,7.065,28.3828H171.0591l-5.7255-25.3374V53.1715Z"/><path class="a" d="M186.5289,49.7911Q183.24,45.924,183.24,38.9191V14.0079q0-6.7609,3.2891-10.2021T196.1524.3644q6.334,0,9.6231,3.4414t3.289,10.2021V38.9191q0,7.0664-3.289,10.9023t-9.6231,3.8374Q189.817,53.6588,186.5289,49.7911ZM198.04,42.817a9.4881,9.4881,0,0,0,.4873-3.4106V13.8253a7.1139,7.1139,0,0,0-.4565-2.7715,1.8149,1.8149,0,0,0-1.8579-1.0659q-2.6191,0-2.6187,3.959V39.4674a8.2655,8.2655,0,0,0,.5478,3.4106,2.0229,2.0229,0,0,0,2.01,1.1573A1.85,1.85,0,0,0,198.04,42.817Z"/><path class="a" d="M218.0782,53.1715,211.6221.7906h9.9893l3.8369,35.6314L228.8594.7906h9.9883l-6.456,52.3809Z"/><path class="a" d="M241.1622,53.1715V44.2789h10.6591v8.8926Z"/><path class="a" d="M255.7794.8517h14.4355q5.6031,0,8.4053,3.1064t2.8623,9.1968l.1221,24.4853q.06,7.7352-2.6807,11.6333t-9.0752,3.898H255.7794Zm12.3642,43.062q2.8623,0,2.8623-2.8018V14.13a9.5716,9.5716,0,0,0-.2734-2.6494,1.7645,1.7645,0,0,0-1.0049-1.1875,6.2349,6.2349,0,0,0-2.2539-.3047h-1.1572V43.9137Z"/><path class="a" d="M285.8067,53.1715V.8517h20.9521V10.9625H296.4659V21.1339h9.8672v9.8672h-9.8672V43h10.9629V53.1715Z"/><path class="a" d="M315.711,53.1715,309.2549.7906h9.9893l3.8369,35.6314L326.4922.7906h9.9883l-6.456,52.3809Z"/><path class="b" d="M24.2535,54.0116h-8.66c-1.0875-1.8775-8.1553-14.1034-10.39-18,2.24-3.8957,9.4148-16.32,10.39-18h8.66c-3.4163,5.9187-6.9759,12.0768-10.39,18Z"/><path class="b" d="M51.1012,46.5131l-4.33,7.5c-2.17.0031-16.2915.011-20.7834-.0019-2.2539-3.8876-9.4261-16.3135-10.3935-17.9981l4.33-7.5c3.4177,5.918,6.9709,12.08,10.3935,17.998Z"/><path class="b" d="M58.0312,19.5131l4.33,7.5C61.279,28.8935,54.2249,41.1273,51.9677,45.011c-4.4936.0081-18.8408.0065-20.7834.0019l-4.33-7.5c6.834-.0008,13.9468.0029,20.7835-.002Z"/><path class="b" d="M38.1135.0116h8.66c1.0875,1.8775,8.1553,14.1034,10.39,18-2.24,3.8957-9.4148,16.32-10.39,18h-8.66c3.4162-5.9188,6.9758-12.0768,10.39-18Z"/><path class="b" d="M11.2658,7.51l4.33-7.5c2.17-.0031,16.2915-.011,20.7835.002C38.6332,3.9,45.8053,16.3256,46.7727,18.01l-4.33,7.5C39.025,19.5921,35.4718,13.43,32.0492,7.512Z"/><path class="b" d="M4.3358,34.51l-4.33-7.5C1.088,25.13,8.142,12.8958,10.3992,9.0122,14.8929,9.004,29.24,9.0057,31.1827,9.01l4.33,7.5c-6.8339.0008-13.9467-.0028-20.7835.002Z"/></svg>
